X:1
T:This spacious earth is all the Lord’s
T:This spacious earth is all the Lord’s (Samuel Arnold)
C:Samuel Arnold
Z:p28, The Psalms of David,
Z:ed. Samuel Arnold and
Z:John Wall Callcott,
Z:London: 1791
%%score [ 1 2 3 4 ]
L:1/8
M:4/2
K:C
V:1 treble nm="Soprano" snm="S."
V:2 treble nm="Alto" snm="A."
V:3 treble-8 transpose=-12 nm="Tenor" snm="T."
V:4 bass nm="Bass" snm="B."
V:1
 z4 z2 c2 c4 d4 | e4 z2 c2 c4 d4 | e4 z2 e2 d4 c4 | (B3 c) A4 G4 z2 G2 | (A2 G2) (A2 B2) c4 c4 | %5
w: This, this is|he, on whom the|Lord Shall show’r his|bles- * sings down, Whom|God _ his _ Sa- viour|
w: This spa- cious|earth is all the|Lord’s, The Lord’s her|ful- * ness is; The|world _ and _ they that|
w: But for him-|self this Lord of|all One cho- sen|seat _ de- sign’d: O!|who _ shall _ to that|
 (_B2 A2) (B2 G2) A4 d4 | (d2 ^c2) (d2 e2) d4 c4 | d4 z2 d2 d4 ^c4 | d4 d4 c4 d4 | e4 z2 e2 d4 c4 | %10
w: shall _ vouch- * safe With|right- * eous- * ness to|crown. Such is the|race of saints, by|whom The sa- cred|
w: dwell _ there- * in By|sov- * ’reign _ right are|his. He fram’d and|fix’d it on the|sea, And his al-|
w: sa- * cred _ hill De-|serv’d _ ad- * mit- tance|find? The man whose|hands and heart are|pure, Whose thoughts from|
 c4 B4 A4 z2 A2 | (B2 A2) (B2 ^c2) d6 =c2 | (B2 G2) (A2 B2) c4 c4 | A4 d4 c4 B4 | c8 d8 | %15
w: courts are trod, And|such _ the _ pro- se-|lytes _ that _ seek The|face of Ja- cob’s|God, the|
w: migh- ty hand Up-|on _ in- * con- stant|floods _ has _ made The|sta- ble fab- ric|stand, the|
w: pride are free; Who|ho- * nest _ po- ver-|ty _ pre- * fers To|gain- ful per- ju-|ry, to|
 e4 c4 d4 B4 | c8 |] %17
w: face of Ja- cob’s|God.|
w: sta- ble fab- ric|stand.|
w: gain- ful per- ju-|ry.|
V:2
 z4 z2 G2 G4 G4 | G4 z2 G2 G4 G4 | G4 z2 G2 G4 ^F4 | G4 ^F4 G4 z4 | z4 z2 F2 E2 D2 E2 C2 | %5
w: This, this is|he, on whom the|Lord Shall show’r his|bles- sings down,|Whom God his Sa- viour|
w: This spa- cious|earth is all the|Lord’s, The Lord’s her|ful- ness is;|The world and they that|
w: But for him-|self this Lord of|all One cho- sen|seat de- sign’d:|O! who shall to that|
 (D2 C2) (D2 E2) F4 A4 | G4 (F2 G2) F4 E4 | F4 z2 A2 A4 A4 | A4 G4 G4 G4 | G4 z2 A2 ^G4 A4 | %10
w: shall _ vouch- * safe With|right- eous- * ness to|crown. Such is the|race of saints, by|whom The sa- cred|
w: dwell _ there- * in By|sov- ’reign _ right are|his. He fram’d and|fix’d it on the|sea, And his al-|
w: sa- * cred _ hill De-|serv’d ad- * mit- tance|find? The man whose|hands and heart are|pure, Whose thoughts from|
 A4 ^G4 A4 z4 | z4 z2 E2 F2 E2 F2 ^F2 | G6 =F2 E4 E4 | F4 F4 E4 D4 | C8 B,8 | C4 E4 F4 D4 | E8 |] %17
w: courts are trod,|And such the pro- se-|lytes that seek The|face of Ja- cob’s|God, the|face of Ja- cob’s|God.|
w: migh- ty hand|Up- on in- con- stant|floods has made The|sta- ble fab- ric|stand, the|sta- ble fab- ric|stand.|
w: pride are free;|Who ho- nest po- ver-|ty pre- fers To|gain- ful per- ju-|ry, to|gain- ful per- ju-|ry.|
V:3
 z4 z2 e2 c4 B4 | c4 z2 e2 c4 B4 | c4 z2 c2 d4 d4 | d4 (d2 c2) B4 z4 | z16 | z8 z4 d4 | %6
w: This, this is|he, on whom the|Lord Shall show’r his|bles- sings _ down,||With|
w: This spa- cious|earth is all the|Lord’s, The Lord’s her|ful- ness _ is;||By|
w: But for him-|self this Lord of|all One cho- sen|seat de- * sign’d:||De-|
 e4 f4 A4 A4 | A4 z2 f2 f4 e4 | f4 d4 e4 B4 | c4 z2 c2 d4 e4 | e6 d2 c4 z4 | z16 | z8 z4 G4 | %13
w: right- eous- ness to|crown. Such is the|race of saints, by|whom The sa- cred|courts are trod,||The|
w: sov- ’reign right are|his. He fram’d and|fix’d it on the|sea, And his al-|migh- ty hand||The|
w: serv’d ad- mit- tance|find? The man whose|hands and heart are|pure, Whose thoughts from|pride are free;||To|
 A4 A4 G4 (G2 F2) | E8 G8 | G4 A4 A4 G4 | G8 |] %17
w: face of Ja- cob’s _|God, the|face of Ja- cob’s|God.|
w: sta- ble fab- ric _|stand, the|sta- ble fab- ric|stand.|
w: gain- ful per- ju- *|ry, to|gain- ful per- ju-|ry.|
V:4
 z4 z2 C,2"^6" E,4 G,4 | C4 z2 C,2"^6" E,4 G,4 | C4 z2 C2"^6" B,4"^´" A,4 | G,4"^#" D,4 G,4 z4 | %4
w: This, this is|he, on whom the|Lord Shall show’r his|bles- sings down,|
w: This spa- cious|earth is all the|Lord’s, The Lord’s her|ful- ness is;|
w: But for him-|self this Lord of|all One cho- sen|seat de- sign’d:|
 z16 | z8 z4"^6" F,4 |"^7""^´" E,4 D,4"^64" A,4"^5#" A,,4 | D,4 z2 D,2"^6" F,4"^#" A,4 | %8
w: |With|right- eous- ness to|crown. Such is the|
w: |By|sov- ’reign right are|his. He fram’d and|
w: |De-|serv’d ad- mit- tance|find? The man whose|
 D4 G,4"^6" E,4 G,4 | C4 z2"^6" C2"^´" B,4 A,4 |"^64" E,4"^5#" E,4 A,,4 z4 | z16 | %12
w: race of saints, by|whom The sa- cred|courts are trod,||
w: fix’d it on the|sea, And his al-|migh- ty hand||
w: hands and heart are|pure, Whose thoughts from|pride are free;||
"^The first verse only of the text is underlaid in the source, with the subsequent verses given here printed after the music.The parts are identified in the source as Treble, Counter, Tenor and Bass: the top three parts are printed in the treble clef,with the Counter and Tenor an octave above sounding pitch.The original time signature is cut common time, but the piece is barred with four minims to a bar.This setting is attributed ‘Dr. Arnold’ in the source." z8 z4 C,4 | %13
w: The|
w: The|
w: To|
 F,4 D,4"^64" G,4"^53" G,4 | A,8 G,8 | C,4 A,4 D,4 G,4 | C,8 |] %17
w: face of Ja- cob’s|God, the|face of Ja- cob’s|God.|
w: sta- ble fab- ric|stand, the|sta- ble fab- ric|stand.|
w: gain- ful per- ju-|ry, to|gain- ful per- ju-|ry.|

